icons/uE941-stop_thick.svg

<svg xmlns="http://www.w3.org/2000/svg" viewBox="0 0 72 72"><title>m_043_stop_thick</title><path d="M36,64.87A28.82,28.82,0,1,1,64.87,36,28.82,28.82,0,0,1,36,64.87Zm0-53.64A24.82,24.82,0,1,0,60.87,36v0A24.85,24.85,0,0,0,36,11.23Z" fill="gray"/><path d="M47.1,49H24.93a2,2,0,0,1-2-2V24.88a2,2,0,0,1,2-2H47.1a2,2,0,0,1,2,2V47A2,2,0,0,1,47.1,49ZM26.93,45H45.1V26.88H26.93Z" fill="gray"/></svg>

<svg xmlns="http://www.w3.org/2000/svg" viewBox="0 0 72 72">
  <path d="M36,64.9c-15.9,0-28.8-13-28.8-28.9,0-15.9,13-28.8,28.9-28.8,15.9,0,28.7,12.9,28.8,28.8,0,15.9-12.9,28.8-28.8,28.9,0,0,0,0-.1,0ZM36,11.2c-13.7,0-24.8,11.2-24.8,24.9s11.2,24.8,24.9,24.8c13.7,0,24.8-11.2,24.8-24.9h0c0-13.7-11.2-24.8-24.9-24.8Z"/>
  <path d="M47.1,49h-22.2c-1.1,0-2-.9-2-2v-22.1c0-1.1.9-2,2-2h22.2c1.1,0,2,.9,2,2v22.1c0,1.1-.9,2-2,2ZM26.9,45h18.2v-18.1h-18.2v18.1Z"/>
</svg>
